X:1
T:A. de Bruck
T:Es ist das Heil uns kommen her
%%score [ 1 2 3 4 ]
L:1/8
Q:1/4=240
M:none
K:C
V:1 treble nm="superius"
V:2 treble nm="superius"
V:3 treble-8 nm="tenor"
V:4 bass nm="tenor"
V:1
 z16 | z16 | z4 d4 d4 c4 | d8 f8 | e8 d8 | c4 d6 c2 c8 x4 | B4 c16- x4 | c16 | z4 c4 B4 G4 | %9
w: ||Es ist das|Heil uns|kom- men|her, uns * kom-|men her||Von Gnad und|
w: ||Die Werk die|hel- fen|nim- mer-|mehr, nim- * mer-|* mehr,||Sie mö- gen|
 B4 c4 | d8 e8 | d4 e8 d2 c2 | B2 A2 d8 ^c4 |1 d16 :|2 d8 z4 d4 x4 || g12 f4 | e4 d4 e4 c2 d2 x4 | %17
w: lau- ter|Gü- *|||te.|* Der|Glaub sieht|Je- * * sum *|
w: nicht be-|hü- *||||ten. *|||
 e2 f2 g6 f2 f4 x4 | e4 d8 ^c4 | d16 x4 | z8 d8 | g12 f4 | e8 B4 d4 x4 | c4 B8 d6 | c2 B8 A4 B16 | %25
w: Chris- * * * *|* * stum|an.|Der|hat g'nug|für uns *|all * *|* * ge- tan,|
w: ||||||||
 z8 z4 G4 | A4 c4 B8 x4 | A8 G4 E2 F2 | G2 A2 B2 AB c4 A4 | B4 G6 FE F4 | G16 x12 |] x16 |] %32
w: Er|ist ein Mitt-|ler wor- * *|||den.||
w: |||||||
V:2
 G8 G4 F4 | G4 _B4 A8 | G4 F6 GA G2 A2 | _B8 A8 | z4 A8 B4 | c4 B2 A2 G16 | z4 G4 E4 C4 x8 | %7
w: Es ist das|Heil uns kom-|men her * * * *||uns *|kom- men * her|aus Gnad und|
w: Die Werk die|hel- fen nim-|mer- mer, * * * *||nim- mer-|* mer- * mehr|Sie mö- gen|
 E4 F4 G6 E2 | G4 A4 G8 | z8 | z4 G4 E4 C4 | (D4 G8) ^F4 | G8 A8- |1 A16 :|2 z4 D4 G12 || %15
w: lau- ter Gü- *|* * te,||aus Gnad und|lau- * ter|Gü- te.||Der Glaub|
w: nicht be- hü- *|* * ten,||sie mö- gen|nicht * be-|hü- ten.|||
 F4 E4 D4 x4 | G4 F4 G8 x4 | z4 G4 c12 | B4 A4 A4 A4 | A4 A8 z4 x4 | D4 G8- x4 | G4 F4 E4 D4 | %22
w: sieht Je- sum|Chris- tum an|Der hat|g'nug für uns all|ge- tan,|der hat|* g'nug für *|
w: |||||||
 C4 E4 D4 A8 | G6 F2 D2 E2 F4 x2 | G4 E8 z4 x14 | E4 D4 G4 x4 | F4 E4 D4 G8 | ^F4 G8 z4 | C4 E12 | %29
w: all * * *||ge- tan,|Er ist ein|Mitt- ler wor- *|* den,|er ist|
w: |||||||
 D4 C4 D8 | C4 D8- D16 |] x16 |] %32
w: ein Mitt- ler|wor- den. *||
w: |||
V:3
 z16 | z16 | z16 | z8 z4 d4 | d4 c4 d8 | f8 e8 x8 | d8 c16- | c16 | z8 z8 | z4 c4 | B8 G8 | B8 c8 | %12
w: |||Es|ist das Hil|uns kom-|men her|||Von|Gnad und|lau- ter|
w: |||Die|Werk die hel-|fen nim-|mer- mehr,|||Sie|mö- gen|nicht be-|
 (d8 e8) |1 d16 :|2 d16 x4 || z8 z4 d4 | g12 f4 x4 | e8 f8 x4 | g8 e8 | d16- x4 | d16 | z8 z4 d4 | %22
w: Gü- *|te||Der|Glaub sieht|Je- sum|Chris- tum|an.|||
w: hü- *||ten.||||||||
 g12 f4 x4 | e8 B8 x2 | d8 c8 x14 | B16 | z16 x4 | z8 z4 G4 | A8 c8 | B8 A8 | G8 A8 x12 |] G16 |] %32
w: hat g'nug|für uns|all ge-|tan,||Er|ist ein|Mitt- ler|wor- *|den.|
w: ||||||||||
V:4
 z16 | z4 G,4 G,4 F,4 | G,4 _B,4 A,8 | G,8 (F,4 D,4) | A,8 D,4 G,4 | A,4 B,4 C4 C,4 x8 | G,8 C,16 | %7
w: |Es ist das|Heil uns kom-|men her, uns|kom * *||men her|
w: |Die Werk die|hel- fen nim-|mer- mer, *|nim- * *||mer- mehr,|
 z4 F,4 E,4 C,4 | E,4 F,4 G,6 E,2 | G,4 A,4 | G,8 C,8 | G,8 A,8 | G,4 B,4 A,8 |1 D,16 :|2 %14
w: Von Gnad und|lau- ter Gü- *|||||te.|
w: Sie mö- gen|nicht be- hü- *||||||
 D,4 G,6 A,2 B,2 A,B, x4 || C8 G,8 | z4 G,4 C12 | B,4 A,8 G,8 | A,4 A,4 D,8 | z4 D,4 G,12 | %20
w: * nicht * be- * *|hü- ten|Der Glaub|sieht Je- sum|Chris- tum an.|Der hat|
w: ten, * * * * *||||||
 F,4 x12 | E,4 D,4 C,2 C4 B,2 | C4 C,4 G,4 D,4 x4 | A,4 E,4 G,6 F,2 x2 | (E,4 G,4) A,8 x14 | %25
w: g'nug|für uns all * *|* ge- tan, der|hat g'nug für uns|all * ge-|
w: |||||
 E,8 z4 G,4 | A,4 C4 B,8 x4 | A,8 G,4 E,4 | F,6 E,2 C,6 D,2 | E,2 F,2 G,8 F,4 | E,8 D,8 x12 |] %31
w: tan Er|ist ein Mitt-|ler wor- *||||
w: ||||||
 G,16 |] %32
w: den.|
w: |

